X:41
T:New Coldstream March
N:page 24 on manuscript
M:C
L:1/8
K:C
z2 G/A/B/ | c4 e4 | g2 f2 e2 d2 | c4 G4 | A2 A2 {AB}c2 BA | G3 A G2 G2 | A2 A2 {AB}c2 BA | G3 A G2 c2 | B3 d c2 e2 |
d3 f e2 e2 | d2 c2 B2 c2 | d3 e d2 g2 | g4 ^f4 | g2 g>g g2 :||: z2 G/A/B/ | c2 c2 c2 ed | c2 A2 F2 fe | d2 d2 d2 g2 |
{f}e4 d2 z2 | c4 e4 | g2 f2 e2 d2 | c4 G4 | A2 A2 {AB}c2 BA | G3 A G2 G2 | f2 f2 {fg}a2 gf | e2 f2 g2 c'2 | e4 d4 | c4 z2 :||

